src/public/img/landing/new/external-websites/nintendo.svg

<svg width="97" height="24" viewBox="0 0 97 24" fill="none" xmlns="http://www.w3.org/2000/svg">
<path d="M9.62092 6.33138H13.126L17.9745 14.2102L17.972 6.33138H21.45V17.6295H17.9771L13.1028 9.75071V17.6295H9.61963L9.62092 6.33138Z" fill="black"/>
<path d="M40.3572 7.4931H43.7425V9.01323H45.5742V10.131H43.7425L43.7451 17.6294H40.3572L40.3585 10.131H38.519V9.01581L40.3598 9.01452L40.3572 7.4931Z" fill="black"/>
<path d="M23.3872 10.1156L26.7697 10.1168V17.6295H23.3872V10.1156Z" fill="black"/>
<path d="M23.3789 6.32872H26.7693V8.63806H23.3789V6.32872Z" fill="black"/>
<path d="M84.027 13.8131C84.027 13.8131 84.0257 14.949 84.0257 15.4044C84.0257 16.6023 83.3211 17.0965 82.6436 17.0965C81.9647 17.0965 81.2575 16.6023 81.2575 15.4044C81.2575 14.949 81.2588 13.7846 81.2588 13.7846C81.2588 13.7846 81.2614 12.6733 81.2614 12.2179C81.2614 11.0251 81.9699 10.5348 82.6436 10.5348C83.3185 10.5348 84.0257 11.0251 84.0257 12.2179C84.0257 12.6733 84.0245 13.5155 84.0283 13.817L84.027 13.8131ZM82.668 9.60332C79.9372 9.60332 77.7241 11.4921 77.7241 13.8221C77.7241 16.1521 79.9385 18.041 82.668 18.041C85.3989 18.041 87.6119 16.1521 87.6119 13.8221C87.6119 11.4921 85.3989 9.60332 82.668 9.60332Z" fill="black"/>
<path d="M73.2835 6.33138H76.6224V17.6295H73.2784C73.2784 17.6295 73.2771 17.2647 73.2771 17.1948C71.9825 18.0112 70.5217 18.0099 69.3843 17.4769C69.079 17.3346 67.0708 16.3668 67.0708 13.7522C67.0708 11.7689 68.9335 9.60322 71.3719 9.81798C72.1744 9.88914 72.7451 10.1828 73.2861 10.4881C73.2835 8.74936 73.2835 6.33138 73.2835 6.33138ZM73.308 13.835C73.308 13.835 73.308 12.8932 73.308 12.4921C73.308 11.3304 72.5094 11.0341 71.9838 11.0341C71.4453 11.0341 70.657 11.3304 70.657 12.4921C70.657 12.8777 70.6583 13.8311 70.6583 13.8311C70.6583 13.8311 70.657 14.7678 70.657 15.1676C70.657 16.328 71.4453 16.6321 71.9825 16.6321C72.5094 16.6321 73.3093 16.328 73.3093 15.1676C73.3093 14.685 73.308 13.835 73.308 13.835Z" fill="black"/>
<path d="M34.6892 9.76905C35.9541 9.73283 38.5201 10.5647 38.5021 13.539C38.4995 14.0669 38.5008 17.6272 38.5008 17.6272H35.14C35.14 17.6272 35.14 13.1625 35.14 12.6929C35.14 12.0383 34.5166 11.3099 33.5943 11.3099C32.6732 11.3099 31.9879 12.0383 31.9879 12.6929C31.9879 13.0138 31.9918 17.6272 31.9918 17.6272H28.6336L28.6323 10.1145L31.9931 10.1119C31.9931 10.1119 31.9892 10.7161 31.9931 10.9024C32.6397 10.2827 33.5711 9.8014 34.6892 9.76905Z" fill="black"/>
<path d="M62.1811 9.76905C63.446 9.73283 66.012 10.5647 65.994 13.539C65.9914 14.0669 65.9927 17.6272 65.9927 17.6272H62.6319C62.6319 17.6272 62.6319 13.1625 62.6319 12.6929C62.6319 12.0383 62.0085 11.3099 61.0861 11.3099C60.1651 11.3099 59.4798 12.0383 59.4798 12.6929C59.4798 13.0138 59.4837 17.6272 59.4837 17.6272H56.1255L56.1281 10.1145L59.485 10.1119C59.485 10.1119 59.4811 10.7161 59.485 10.9024C60.1316 10.2827 61.0642 9.8014 62.1811 9.76905Z" fill="black"/>
<path d="M48.7253 12.7354C48.7201 12.0769 48.7343 11.637 48.9494 11.2618C49.2135 10.7987 49.6991 10.5787 50.1396 10.5761H50.1383C50.5789 10.5787 51.0645 10.7987 51.3285 11.2618C51.5437 11.6383 51.5527 12.0782 51.5475 12.7367L48.7253 12.7354ZM51.5359 15.0007C51.5359 15.0007 51.5385 15.0343 51.5385 15.4561C51.5385 16.83 50.6381 17.1354 50.1383 17.1354C49.6385 17.1354 48.7227 16.83 48.7227 15.4561C48.7227 15.0447 48.7253 13.9049 48.7253 13.9049C48.7253 13.9049 55.0976 13.9075 55.0976 13.9036C55.0976 11.5736 52.8575 9.64336 50.1061 9.64336C47.3547 9.64336 45.125 11.5322 45.125 13.8622C45.125 16.1922 47.3547 18.0798 50.1061 18.0798C52.3887 18.0798 54.317 16.7718 54.9056 14.9981L51.5359 15.0007Z" fill="black"/>
<path d="M88.14 7.17226C88.6874 7.17226 88.9592 7.35856 88.9592 7.72727C88.9592 7.98084 88.8021 8.17232 88.5406 8.2383L88.9695 9.09863H88.4504L88.0833 8.30945H87.8553V9.09863H87.3877V7.17226H88.14ZM88.0975 6.41931C87.1417 6.41931 86.3662 7.19814 86.3662 8.15809C86.3662 9.11803 87.1417 9.89686 88.0975 9.89686C89.0533 9.89686 89.8287 9.11803 89.8287 8.15809C89.8287 7.19814 89.0533 6.41931 88.0975 6.41931ZM89.4977 8.15938C89.4977 8.93562 88.8704 9.56567 88.0975 9.56567C87.3246 9.56567 86.6973 8.93562 86.6973 8.15938C86.6973 7.38314 87.3246 6.75309 88.0975 6.75309C88.8704 6.75309 89.4977 7.38185 89.4977 8.15938ZM87.8553 8.02742H88.0833C88.35 8.02742 88.4788 7.94591 88.4788 7.75444C88.4788 7.55391 88.3409 7.46723 88.0601 7.46723H87.8553V8.02742Z" fill="black"/>
<path d="M12.686 23.9999C5.08076 23.9974 -0.000976562 18.5844 -0.000976562 12.0213C-0.000976562 5.4582 5.09235 -0.0168714 12.6744 -5.29078e-05H84.3237C91.9057 -0.0168714 96.999 5.4582 96.999 12.0213C96.999 18.5844 91.9173 23.9974 84.3121 23.9999H12.686ZM12.7092 2.95224C6.68837 2.96388 2.99268 7.0055 2.99268 12.0058C2.99268 17.0047 6.66518 21.08 12.7092 21.058H84.2889C90.3329 21.0787 94.0067 17.0047 94.0067 12.0058C94.0067 7.00679 90.311 2.96518 84.2902 2.95353L12.7092 2.95224Z" fill="black"/>
</svg>

<svg xmlns="http://www.w3.org/2000/svg" width="97" height="24" fill="none">
  <path fill="#000" d="M9.62 6.331h3.506l4.848 7.88-.002-7.88h3.478V17.63h-3.473l-4.874-7.88v7.88H9.62V6.33Zm30.737 1.162h3.386v1.52h1.831v1.118h-1.831l.002 7.498h-3.388l.002-7.498h-1.84V9.016l1.84-.001-.002-1.522Zm-16.97 2.623h3.383v7.514h-3.383v-7.514Zm-.008-3.787h3.39v2.31h-3.39v-2.31Zm60.648 7.484-.001 1.591c0 1.198-.705 1.692-1.382 1.692-.68 0-1.387-.494-1.387-1.692l.002-1.62.002-1.566c0-1.193.709-1.683 1.383-1.683s1.382.49 1.382 1.683c0 .455-.001 1.297.002 1.599l-.001-.004Zm-1.359-4.21c-2.73 0-4.944 1.89-4.944 4.22s2.215 4.218 4.944 4.218c2.73 0 4.944-1.889 4.944-4.219s-2.213-4.219-4.944-4.219Zm-9.384-3.272h3.338V17.63h-3.344v-.435c-1.296.816-2.756.815-3.894.282a4.007 4.007 0 0 1-2.313-3.725c0-1.983 1.862-4.149 4.3-3.934.803.071 1.374.365 1.915.67-.002-1.739-.002-4.157-.002-4.157Zm.024 7.504v-1.343c0-1.162-.799-1.458-1.324-1.458-.539 0-1.327.296-1.327 1.458l.001 1.34-.001 1.336c0 1.16.788 1.464 1.326 1.464.526 0 1.326-.304 1.326-1.464l-.001-1.333ZM34.69 9.77c1.264-.037 3.83.795 3.812 3.769-.003.528-.001 4.088-.001 4.088H35.14v-4.934c0-.655-.623-1.383-1.546-1.383-.92 0-1.606.728-1.606 1.383l.004 4.934h-3.358l-.002-7.512 3.361-.003s-.004.604 0 .79A4.063 4.063 0 0 1 34.69 9.77Zm27.491 0c1.265-.037 3.831.795 3.813 3.769-.003.528-.001 4.088-.001 4.088h-3.361v-4.934c0-.655-.623-1.383-1.546-1.383-.92 0-1.606.728-1.606 1.383l.004 4.934h-3.358l.002-7.512 3.357-.003s-.004.604 0 .79a4.065 4.065 0 0 1 2.696-1.133Zm-13.456 2.965c-.005-.658.01-1.098.224-1.473a1.38 1.38 0 0 1 1.19-.686c.44.003.925.223 1.19.686.215.376.224.816.218 1.475l-2.822-.002Zm2.81 2.266s.004.033.004.455c0 1.374-.9 1.68-1.4 1.68-.5 0-1.416-.306-1.416-1.68l.002-1.551s6.373.003 6.373-.001c0-2.33-2.24-4.26-4.992-4.26-2.751 0-4.981 1.888-4.981 4.218s2.23 4.218 4.981 4.218c2.283 0 4.211-1.308 4.8-3.082l-3.37.003ZM88.14 7.172c.547 0 .82.187.82.555 0 .254-.158.445-.42.511l.43.86h-.52l-.367-.789h-.228v.79h-.467V7.172h.752Zm-.043-.753c-.955 0-1.73.78-1.73 1.74 0 .959.775 1.738 1.73 1.738.956 0 1.732-.779 1.732-1.739 0-.96-.776-1.739-1.731-1.739Zm1.4 1.74c0 .777-.627 1.407-1.4 1.407-.772 0-1.4-.63-1.4-1.407 0-.776.628-1.406 1.4-1.406.773 0 1.4.629 1.4 1.406Zm-1.642-.132h.228c.267 0 .396-.081.396-.273 0-.2-.138-.287-.419-.287h-.205v.56Z"/>
  <path fill="#000" d="M12.686 24C5.081 23.997-.001 18.584-.001 12.02-.001 5.458 5.092-.017 12.674 0h71.65c7.582-.017 12.675 5.458 12.675 12.021 0 6.563-5.082 11.976-12.687 11.979H12.686Zm.023-21.048c-6.02.012-9.716 4.053-9.716 9.054 0 4.999 3.672 9.074 9.716 9.052h71.58c6.044.02 9.718-4.053 9.718-9.052 0-5-3.696-9.04-9.717-9.052l-71.58-.002Z"/>
</svg>
